X: 35
T: La Chatouilleuse.
%R: jig
Z: 2015 John Chambers <jc:trillian.mit.edu>
S: http://books.google.com/books?id=ipV0y26Vq8EC
B: Giovanni Andrea Gallini "A New Collection of Forty-Four Cotillions" c.1755 #35
M: 6/8
L: 1/8
K: D
% - - - - - - - - - - - - - - - - - - - - - - - - - - - - -
% Voice 1 staff breaks arranged to fit a wider page:
V: 1
DFA |\
dfa gfe | d2A BGB | AFA AGF | {F}E3 DFA |\
dfa gec | d2A BGB | AFA GFE | D3 :|
|: Ad=c |\
B2G Bed | ^c2A efg | fga agf | e3 DFA |\
dfa gec | d2A BGE | AFD EDC | D3 :|
% - - - - - - - - - - - - - - - - - - - - - - - - - - - - -
% Voice 2 preserves the original staff layout:
V: 2 clef=bass middle=d
z2z | d2f a2g | f3 g3 | f3 fed |
A3 z2z | d2f a2g | f3 g3 | f3 g2a | d3 :|
|: f3 | g3 ^g3 | a3 A3 | d3 d3 A3
z2z | d2f a2g | f2f g3 | f3 g2a | d3 :|
% - - - - - - - - - - Dance description - - - - - - - - - -
%%sep 1 1 400
%%center La Chatouilleuse.
%%begintext align
%%   Le Grand Rond - - - - 2/1
%%endtext
%%begintext align
%%   The first and Third Couple a Quarter of the
%% Round with the Couple on their Right, and
%% Rigaudon; the same again and then you are in
%% opposite places - - - 1/2
%%endtext
%%begintext align
%%   The Ladies half Moulinet on the Right, at
%% the same time the Gentlemen make half a
%% Course on the Left, and then the Allemande - 1/2
%%endtext
%%sep 1 1 400

%%sep 2 1 500
%%sep 1 1 500

